X:132
T:Fig Leaf, The
M:2/4
L:1/8
B:Thompson's Compleat Collection of 200 Favourite Country Dances, vol. 1 (London, 1757)
Z:Transcribed and edited by Flynn Titford-Mock, 2007
Z:abc's:AK/Fiddler's Companion
K:Bb
F|B/c/d/e/ fb|"tr"g2 fc|dABF|DB,DF|B/c/d/e/ fb|g2 fb|(a/g/)(a/g/) c=e|"tr"(f2 f):|
|:F|D/E/F/G/ FB|A/B/c/d/ ce|dc/B/ cB/A/|BFDB,|D/E/F/G/ FB|A/B/c/d/ ce|dc/B/ FA|(B2 B):|

